austria/municipalities/40624.svg

<?xml version="1.0" encoding="UTF-8"?>
<!DOCTYPE svg PUBLIC "-//W3C//DTD SVG 1.1//EN" "http://www.w3.org/Graphics/SVG/1.1/DTD/svg11.dtd">
<svg xmlns="http://www.w3.org/2000/svg" version="1.1" width="166px" height="207px" style="shape-rendering:geometricPrecision; text-rendering:geometricPrecision; image-rendering:optimizeQuality; fill-rule:evenodd; clip-rule:evenodd" xmlns:xlink="http://www.w3.org/1999/xlink">
<g><path style="opacity:1" fill="#000000" d="M -0.5,-0.5 C 54.8333,-0.5 110.167,-0.5 165.5,-0.5C 165.5,44.1667 165.5,88.8333 165.5,133.5C 160.657,161.881 145.657,183.381 120.5,198C 112.336,201.554 104.002,204.388 95.5,206.5C 86.8333,206.5 78.1667,206.5 69.5,206.5C 29.593,196.928 6.25968,171.928 -0.5,131.5C -0.5,87.5 -0.5,43.5 -0.5,-0.5 Z"/></g>
<g><path style="opacity:1" fill="#cb0000" d="M 3.5,3.5 C 29.5,3.5 55.5,3.5 81.5,3.5C 81.5,35.1667 81.5,66.8333 81.5,98.5C 55.5,98.5 29.5,98.5 3.5,98.5C 3.5,66.8333 3.5,35.1667 3.5,3.5 Z"/></g>
<g><path style="opacity:1" fill="#fefffe" d="M 83.5,3.5 C 109.5,3.5 135.5,3.5 161.5,3.5C 161.5,35.1667 161.5,66.8333 161.5,98.5C 135.5,98.5 109.5,98.5 83.5,98.5C 83.5,66.8333 83.5,35.1667 83.5,3.5 Z"/></g>
<g><path style="opacity:1" fill="#000000" d="M 113.5,16.5 C 120.167,16.5 126.833,16.5 133.5,16.5C 131.063,25.0182 129.396,33.6848 128.5,42.5C 136.665,41.1106 144.665,39.1106 152.5,36.5C 152.666,43.8409 152.5,51.1742 152,58.5C 144.633,55.8083 137.133,54.4749 129.5,54.5C 129.361,63.2123 130.361,71.8789 132.5,80.5C 125.833,80.5 119.167,80.5 112.5,80.5C 114.238,71.5925 115.238,62.5925 115.5,53.5C 107.298,54.3106 99.2976,55.9772 91.5,58.5C 91.1694,51.1365 91.5027,43.8032 92.5,36.5C 100.187,39.6701 108.187,41.3367 116.5,41.5C 115.891,33.1219 114.891,24.7885 113.5,16.5 Z"/></g>
<g><path style="opacity:1" fill="#fefffe" d="M 3.5,100.5 C 29.5,100.5 55.5,100.5 81.5,100.5C 81.8275,105.544 81.4941,110.544 80.5,115.5C 78.3799,114.109 76.0466,113.442 73.5,113.5C 67.7805,114.577 62.1139,115.911 56.5,117.5C 49.5433,115.625 42.5433,113.958 35.5,112.5C 29.1942,113.416 23.0275,114.749 17,116.5C 12.7133,116.294 8.54665,115.461 4.5,114C 3.53335,109.599 3.20001,105.099 3.5,100.5 Z"/></g>
<g><path style="opacity:1" fill="#cb0000" d="M 27.5,115.5 C 32.5111,115.334 37.5111,115.501 42.5,116C 47.0977,117.483 51.7644,118.649 56.5,119.5C 62.2917,118.108 68.1251,116.774 74,115.5C 76.2702,116.86 78.7702,117.527 81.5,117.5C 81.8174,120.572 81.4841,123.572 80.5,126.5C 77.5664,125.58 74.5664,124.913 71.5,124.5C 65.5455,125.823 59.5455,126.823 53.5,127.5C 47.041,126.363 40.541,125.363 34,124.5C 28.6953,125.714 23.362,126.714 18,127.5C 13.2471,126.38 8.41377,125.713 3.5,125.5C 3.5,122.5 3.5,119.5 3.5,116.5C 8.16319,117.499 12.8299,118.499 17.5,119.5C 21.3357,119.243 24.6691,117.91 27.5,115.5 Z"/></g>
<g><path style="opacity:1" fill="#fefffe" d="M 33.5,126.5 C 40.2274,127.318 46.8941,128.318 53.5,129.5C 59.1549,129.378 64.6549,128.378 70,126.5C 73.1275,127.204 76.2942,127.704 79.5,128C 80.7711,130.554 81.4377,133.387 81.5,136.5C 81.3333,139.167 81.1667,141.833 81,144.5C 73.9607,140.683 66.7941,140.516 59.5,144C 55.5,144.667 51.5,144.667 47.5,144C 43.133,142.327 38.633,141.16 34,140.5C 27.5806,142.253 21.0806,143.087 14.5,143C 11.165,142.247 7.99837,141.081 5,139.5C 3.84355,135.582 3.34355,131.582 3.5,127.5C 8.55116,127.863 13.5512,128.529 18.5,129.5C 23.7377,129.072 28.7377,128.072 33.5,126.5 Z"/></g>
<g><path style="opacity:1" fill="#fefffe" d="M -0.5,131.5 C 6.25968,171.928 29.593,196.928 69.5,206.5C 46.1667,206.5 22.8333,206.5 -0.5,206.5C -0.5,181.5 -0.5,156.5 -0.5,131.5 Z"/></g>
<g><path style="opacity:1" fill="#fefffe" d="M 165.5,133.5 C 165.5,157.833 165.5,182.167 165.5,206.5C 142.167,206.5 118.833,206.5 95.5,206.5C 104.002,204.388 112.336,201.554 120.5,198C 145.657,183.381 160.657,161.881 165.5,133.5 Z"/></g>
<g><path style="opacity:1" fill="#cb0000" d="M 5.5,142.5 C 9.42047,144.416 13.5871,145.416 18,145.5C 23.827,144.459 29.6603,143.459 35.5,142.5C 41.3851,144.573 47.3851,146.239 53.5,147.5C 59.2203,145.726 65.0536,144.393 71,143.5C 74.5576,143.875 77.8909,144.875 81,146.5C 81.6667,149.833 81.6667,153.167 81,156.5C 78.1648,154.692 74.9982,153.692 71.5,153.5C 58.7423,156.303 46.0757,155.969 33.5,152.5C 25.2685,155.958 16.9352,156.291 8.5,153.5C 7.70332,149.777 6.70332,146.11 5.5,142.5 Z"/></g>
<g><path style="opacity:1" fill="#fefffe" d="M 30.5,155.5 C 38.564,155.979 46.564,156.979 54.5,158.5C 60.2042,157.71 65.8709,156.71 71.5,155.5C 74.6268,156.125 77.6268,157.125 80.5,158.5C 81.8333,162.833 81.8333,167.167 80.5,171.5C 74.5701,169.057 68.5701,168.89 62.5,171C 55.8333,171.667 49.1667,171.667 42.5,171C 34.9203,167.889 27.2537,167.722 19.5,170.5C 18.1861,169.687 17.0195,168.687 16,167.5C 14.3091,163.953 12.4758,160.453 10.5,157C 13.5944,157.391 16.7611,157.891 20,158.5C 23.749,157.968 27.249,156.968 30.5,155.5 Z"/></g>
<g><path style="opacity:1" fill="#cb0000" d="M 23.5,171.5 C 30.3914,170.901 37.058,171.735 43.5,174C 52.68,175.031 61.68,174.197 70.5,171.5C 74.1486,172.33 77.8153,172.996 81.5,173.5C 81.5,176.833 81.5,180.167 81.5,183.5C 77.9231,182.421 74.2564,181.754 70.5,181.5C 59.0125,184.15 47.5125,184.15 36,181.5C 33.9579,181.615 31.9579,181.949 30,182.5C 26.1791,180.012 23.0124,176.846 20.5,173C 21.7375,172.768 22.7375,172.268 23.5,171.5 Z"/></g>
<g><path style="opacity:1" fill="#fefffe" d="M 69.5,183.5 C 73.5305,183.767 77.3639,184.767 81,186.5C 81.4994,191.823 81.666,197.156 81.5,202.5C 62.8348,202.926 46.5015,197.092 32.5,185C 39.0257,184.835 45.5257,185.335 52,186.5C 58.0927,186.183 63.9261,185.183 69.5,183.5 Z"/></g>
</svg>

<svg xmlns="http://www.w3.org/2000/svg" width="166" height="207" style="shape-rendering:geometricPrecision;text-rendering:geometricPrecision;image-rendering:optimizeQuality;fill-rule:evenodd;clip-rule:evenodd"><path style="opacity:1" d="M-.5-.5h166v134c-4.843 28.381-19.843 49.881-45 64.5a157.946 157.946 0 0 1-25 8.5h-26c-39.907-9.572-63.24-34.572-70-75V-.5z"/><path style="opacity:1" fill="#cb0000" d="M3.5 3.5h78v95h-78v-95z"/><path style="opacity:1" fill="#fefffe" d="M83.5 3.5h78v95h-78v-95z"/><path style="opacity:1" d="M113.5 16.5h20a149.187 149.187 0 0 0-5 26 161.53 161.53 0 0 0 24-6c.166 7.34 0 14.674-.5 22-7.367-2.692-14.867-4.025-22.5-4-.139 8.712.861 17.379 3 26h-20a165.668 165.668 0 0 0 3-27 114.24 114.24 0 0 0-24 5 121.87 121.87 0 0 1 1-22 65.804 65.804 0 0 0 24 5 268.642 268.642 0 0 0-3-25z"/><path style="opacity:1" fill="#fefffe" d="M3.5 100.5h78a57.124 57.124 0 0 1-1 15c-2.12-1.391-4.453-2.058-7-2a194.647 194.647 0 0 0-17 4 364.953 364.953 0 0 0-21-5 136.645 136.645 0 0 0-18.5 4A42.633 42.633 0 0 1 4.5 114c-.967-4.401-1.3-8.901-1-13.5z"/><path style="opacity:1" fill="#cb0000" d="M27.5 115.5a112.97 112.97 0 0 1 15 .5 107.482 107.482 0 0 0 14 3.5 804.204 804.204 0 0 1 17.5-4c2.27 1.36 4.77 2.027 7.5 2a21.12 21.12 0 0 1-1 9 54.197 54.197 0 0 0-9-2 170.323 170.323 0 0 1-18 3 458.075 458.075 0 0 0-19.5-3 204.922 204.922 0 0 1-16 3 77.76 77.76 0 0 0-14.5-2v-9l14 3c3.836-.257 7.17-1.59 10-4z"/><path style="opacity:1" fill="#fefffe" d="M33.5 126.5a360.743 360.743 0 0 1 20 3 52.911 52.911 0 0 0 16.5-3 74.336 74.336 0 0 0 9.5 1.5c1.271 2.554 1.938 5.387 2 8.5l-.5 8c-7.04-3.817-14.206-3.984-21.5-.5-4 .667-8 .667-12 0a62.1 62.1 0 0 0-13.5-3.5 70.153 70.153 0 0 1-19.5 2.5 38.414 38.414 0 0 1-9.5-3.5 37.093 37.093 0 0 1-1.5-12 123.994 123.994 0 0 1 15 2c5.238-.428 10.238-1.428 15-3z"/><path style="opacity:1" fill="#fefffe" d="M-.5 131.5c6.76 40.428 30.093 65.428 70 75h-70v-75zM165.5 133.5v73h-70a157.946 157.946 0 0 0 25-8.5c25.157-14.619 40.157-36.119 45-64.5z"/><path style="opacity:1" fill="#cb0000" d="M5.5 142.5c3.92 1.916 8.087 2.916 12.5 3 5.827-1.041 11.66-2.041 17.5-3a138.013 138.013 0 0 0 18 5 118.31 118.31 0 0 1 17.5-4c3.558.375 6.89 1.375 10 3a25.249 25.249 0 0 1 0 10c-2.835-1.808-6.002-2.808-9.5-3-12.758 2.803-25.424 2.469-38-1-8.232 3.458-16.565 3.791-25 1a102.754 102.754 0 0 0-3-11z"/><path style="opacity:1" fill="#fefffe" d="M30.5 155.5a185.941 185.941 0 0 1 24 3c5.704-.79 11.37-1.79 17-3a38.041 38.041 0 0 1 9 3c1.333 4.333 1.333 8.667 0 13-5.93-2.443-11.93-2.61-18-.5a100.2 100.2 0 0 1-20 0c-7.58-3.111-15.246-3.278-23-.5a14.984 14.984 0 0 1-3.5-3 158.28 158.28 0 0 0-5.5-10.5c3.094.391 6.261.891 9.5 1.5 3.749-.532 7.249-1.532 10.5-3z"/><path style="opacity:1" fill="#cb0000" d="M23.5 171.5c6.891-.599 13.558.235 20 2.5 9.18 1.031 18.18.197 27-2.5 3.649.83 7.315 1.496 11 2v10a49.538 49.538 0 0 0-11-2c-11.487 2.65-22.987 2.65-34.5 0a27.867 27.867 0 0 0-6 1 32.264 32.264 0 0 1-9.5-9.5c1.238-.232 2.238-.732 3-1.5z"/><path style="opacity:1" fill="#fefffe" d="M69.5 183.5a31.3 31.3 0 0 1 11.5 3c.5 5.323.666 10.656.5 16-18.665.426-34.998-5.408-49-17.5a96.112 96.112 0 0 1 19.5 1.5c6.093-.317 11.926-1.317 17.5-3z"/></svg>
